X:431
M:C|
L:1/8
K:F
fg/a/ fc dBcA|BGAF EF/G/ EC|FcAc FdBd|cfeg f/f/f ~fg|
afge fcdB|cABG EF/G/ EC|CFAF CGBG|cABG F/F/F ~F2||

